resources/svg/plant-o.svg

<svg width="15" height="15" viewBox="0 0 15 15" fill="none" xmlns="http://www.w3.org/2000/svg">
<path d="M7.5 15V7M7.5 7.5V10.5M7.5 7.5C7.5 5.29086 5.70914 3.5 3.5 3.5H0.5V6.5C0.5 8.70914 2.29086 10.5 4.5 10.5H7.5M7.5 7.5H10.5C12.7091 7.5 14.5 5.70914 14.5 3.5V0.5H11.5C9.29086 0.5 7.5 2.29086 7.5 4.5V7.5ZM7.5 7.5L11.5 3.5M7.5 10.5L3.5 6.5" stroke="black"/>
</svg>

<svg viewBox="0 0 15 15" fill="none" xmlns="http://www.w3.org/2000/svg" fill="currentColor"><path d="M7.5 15V7m0 .5v3m0-3a4 4 0 00-4-4h-3v3a4 4 0 004 4h3m0-3h3a4 4 0 004-4v-3h-3a4 4 0 00-4 4v3zm0 0l4-4m-4 7l-4-4" stroke="currentColor"/></svg>
